X:1
T:Title
%%score { ( 1 2 ) | ( 3 4 ) }
L:1/8
Q:1/4=100
M:4/4
K:Db
V:1 treble nm="Grand Piano"
V:2 treble 
V:3 bass 
V:4 bass 
V:1
 z8 | z8 |[M:17/16] z17/2 |[M:4/4] z8 |[M:17/16] z17/2 |[M:9/8] z9 |[M:4/4] z8 | z8 | z8 | %9
[M:5/4] z2 z2 z/ [FA]3/2- [FA]4- |[M:4/4] [FA]2 z2 z4 | z8 |[M:17/16] z17/2 |[M:4/4] z8 | %14
[M:17/16] z17/2 | %15
[M:4/4] z8[Q:1/4=81][Q:1/4=98][Q:1/4=97][Q:1/4=95][Q:1/4=94][Q:1/4=92][Q:1/4=91][Q:1/4=89][Q:1/4=88][Q:1/4=86][Q:1/4=84][Q:1/4=83][Q:1/4=80][Q:1/4=78][Q:1/4=77] | %16
 z8 |] %17
V:2
 DF [FA]>[GB]- [GB]/[FA]F/- F/ED/- | D<[DG]- [DG]<[DB]- [DB]<[DA]- [DA]2- | %2
[M:17/16] [DA]<[Fd][FA][GB][GA][FA]FED/- |[M:4/4] D<G- G<F- F<[CE]- [CE]2- | %4
[M:17/16] [CE]/DF[FA]3/2[GB][FA]FED/- |[M:9/8] D/G-<GB/- B3/2d3/2- d3/2[Ac][GB]/- | %6
[M:4/4] [GB]/[FA][_F=G]/- [FG]/[=FA][_GB]/- [GB]/[FA]F/- F/DE/- | E<F- F<[CE]- [CE]<D- D2- | %8
 D/[CE][CE]/- [CE]/[CE][DF]/- [DF]/[EG][EG]/- [EG]/[DF][CE]/- | %9
[M:5/4] [CE]<[DF]- [DF]<[EG]- [EG]/ z/ z z/ D3/2- D2- |[M:4/4] D/BB/- B/BA/- A<B- B/B[AB]/- | %11
 [AB]<[=Ge]- [Ge]<[Gd]- [Gd]<c- c/BA/- |[M:17/16] A/[DFd][Fd][Ed][Gd][Fd]-<[Fd][FA]>[DF]- | %13
[M:4/4] [DF]<[DG]- [DG]<[DA]- [DA]<[DB]- [DB]2- |[M:17/16] [DB]/[DA][DA][Fd]3/2[GB][FA]FFA/- | %15
[M:4/4] A<[=Gd]- [Gd]<[_Ge]- [Ge]<[Fd]- [Fd]2- | [Fd]2 z2 z4 |] %17
V:3
 [D,F,][D,A,D] [D,D]>[D,D]- [D,D]/[D,D][D,A,D]/- [D,A,D]/[C,G,A,][_C,F,]/- | %1
 [C,F,]<[B,,G,]- [B,,G,]<[G,,G,]- [G,,G,]<[D,F,]- [D,F,]2- | %2
[M:17/16] [D,F,]<[D,A,][D,A,][D,D][D,D][D,D][D,A,D][G,A,C][F,A,]/- | %3
[M:4/4] [F,A,]<[E,A,C]- [E,A,C]<[D,A,D]- [D,A,D]<[A,,A,]- [A,,A,]2- | %4
[M:17/16] [A,,A,]/[D,F,][D,A,D][D,D]3/2[D,D][D,D][D,A,D][E,G,C][F,A,]/- | %5
[M:9/8] [F,A,]/[G,B,D]-<[G,B,D][G,D]/- [G,D]3/2[G,B,G]3/2- [G,B,G]3/2[G,D]3/2- | %6
[M:4/4] [G,D]/[D,D][D,B,]/- [D,B,]/[D,A,][D,A,]/- [D,A,]/[D,D][D,A,D]/- [D,A,D]/[G,B,][=G,B,D]/- | %7
 [G,B,D]<[A,D]- [A,D]<[A,,_G,]- [A,,G,]<[D,F,]- [D,F,]2- | %8
 [D,F,]/[A,,A,][A,,A,]/- [A,,A,]/[A,,A,][A,,A,]/- [A,,A,]/[A,,A,][A,,A,]/- [A,,A,]/[A,,A,][A,,A,]/- | %9
[M:5/4] [A,,A,]<[D,A,]- [D,A,]<[D,A,]- [D,A,]<A,- A,/ z/ z z2 |[M:4/4] z8 | %11
 z4 z2[K:treble] z/ ._D3/2 |[M:17/16] z17/2[K:bass] |[M:4/4] z8 |[M:17/16] z17/2 |[M:4/4] z8 | %16
 z8 |] %17
V:4
 x8 | x8 |[M:17/16] x17/2 |[M:4/4] x8 |[M:17/16] x17/2 |[M:9/8] x9 |[M:4/4] x8 | x8 | x8 | %9
[M:5/4] z2 z2 z/ D,3/2- D,4 | %10
[M:4/4] z/ [G,DG][G,DG]/- [G,DG]/[G,DG][F,D]/- [F,D]<[G,DG]- [G,DG]/[G,D][F,=D]/- | %11
 [F,D]<[E,E]- [E,E]<[E,E]- [E,E]<[K:treble][A,CG]- [A,CG]/[A,G]-[A,CG]/- | %12
[M:17/16] [A,CG]/[K:bass]D,[D,A,][D,G,][D,B,][D,A,]-<[D,A,][D,A,]>[_C,A,]- | %13
[M:4/4] [C,A,]<[B,,G,]- [B,,G,]<[A,,F,]- [A,,F,]<[G,,G,]- [G,,G,]2- | %14
[M:17/16] [G,,G,]/[D,A,][D,A,][D,A,]3/2[D,B,][D,D][D,A,D][D,A,][F,A,F]/- | %15
[M:4/4] [F,A,F]<[E,B,]- [E,B,]<[A,,C]- [A,,C]<[D,D]- [D,D]2- | [D,D]2 z2 z4 |] %17

